X:52
T:B052-  Calm was the evening (last note, unprintable staccato)
Q:1/4=120
L:1/4
M:6/4
K:Gm
d3/2c/2BABc|B3/2A/2G^.F3|G3/2F/2GA2B|\
cded3|ddefcd|eBcd2d|c3/2B/2AA3/2B/2c|\
B2dd3/2c/2B|ABG^FF2|A3B3/2A/2B|c3/2d/2ed2d|\
ddefde|c3/2d/2ed2A/2B/2|c3/2B/2Ad3/2c/2B|\
A3/2B/2cB3/2A/2G|^F3=f3|d3/2c/2BA3/2B/2^F|(G3G3)|]
